assets/icons/vk-filled.svg

<svg width="24" height="25" viewBox="0 0 24 25" fill="none" xmlns="http://www.w3.org/2000/svg">
<g clip-path="url(#clip0_25_2660)">
<path d="M15.6834 0.637573H8.31614C1.59314 0.637573 -0.000610352 2.23132 -0.000610352 8.95432V16.3216C-0.000610352 23.0446 1.59314 24.6383 8.31614 24.6383H15.6834C22.4064 24.6383 24.0001 23.0446 24.0001 16.3216V8.95432C24.0001 2.23132 22.3906 0.637573 15.6834 0.637573ZM19.3749 17.7586H17.6326C16.9726 17.7586 16.7694 17.2351 15.5821 16.0321C14.5509 15.0323 14.0941 14.8996 13.8399 14.8996C13.4806 14.8996 13.3786 15.0008 13.3786 15.4936V17.0678C13.3786 17.4901 13.2459 17.7436 12.1284 17.7436C10.2804 17.7436 8.22989 16.6261 6.79214 14.5441C4.62389 11.4931 4.03064 9.20782 4.03064 8.73532C4.03064 8.48107 4.13189 8.24332 4.62014 8.24332H6.36614C6.80789 8.24332 6.97589 8.44657 7.14764 8.91907C8.01089 11.4113 9.44864 13.5946 10.0419 13.5946C10.2609 13.5946 10.3621 13.4933 10.3621 12.9346V10.3606C10.2954 9.17332 9.67064 9.07132 9.67064 8.64982C9.67064 8.44657 9.83864 8.24332 10.1079 8.24332H12.8536C13.2249 8.24332 13.3614 8.44657 13.3614 8.88382V12.3563C13.3614 12.7313 13.5294 12.8641 13.6306 12.8641C13.8496 12.8641 14.0371 12.7313 14.4429 12.3248C15.6969 10.9186 16.5954 8.75032 16.5954 8.75032C16.7124 8.49607 16.9156 8.25832 17.3574 8.25832H19.1034C19.6269 8.25832 19.7439 8.52757 19.6269 8.90257C19.4079 9.91807 17.2711 12.9338 17.2711 12.9338C17.0874 13.2383 17.0169 13.3711 17.2711 13.7108C17.4586 13.9651 18.0684 14.4923 18.4741 14.9648C19.2204 15.8123 19.7941 16.5233 19.9471 17.0153C20.1189 17.5036 19.8654 17.7578 19.3726 17.7578L19.3749 17.7586Z" fill="#111111"/>
</g>
<defs>
<clipPath id="clip0_25_2660">
<rect width="24" height="24" fill="white" transform="translate(0 0.637573)"/>
</clipPath>
</defs>
</svg>

<svg xmlns="http://www.w3.org/2000/svg" width="24" height="25" fill="none" viewBox="0 0 24 25"><g clip-path="url(#a)"><path fill="#111" d="M15.683.638H8.316C1.593.638 0 2.23 0 8.954v7.368c0 6.723 1.594 8.316 8.317 8.316h7.367c6.723 0 8.317-1.593 8.317-8.316V8.954C24 2.231 22.39.638 15.683.638m3.692 17.12h-1.742c-.66 0-.864-.523-2.05-1.726-1.032-1-1.489-1.132-1.743-1.132-.36 0-.461.1-.461.594v1.574c0 .422-.133.676-1.25.676-1.849 0-3.9-1.118-5.337-3.2-2.168-3.05-2.761-5.336-2.761-5.809 0-.254.1-.492.59-.492h1.745c.442 0 .61.204.782.676.863 2.492 2.3 4.676 2.894 4.676.219 0 .32-.102.32-.66V10.36c-.067-1.188-.691-1.29-.691-1.711 0-.203.168-.407.437-.407h2.746c.37 0 .507.204.507.64v3.473c0 .375.168.508.27.508.219 0 .406-.133.812-.54 1.254-1.405 2.152-3.574 2.152-3.574.117-.254.32-.492.762-.492h1.746c.524 0 .64.27.524.645-.22 1.015-2.356 4.03-2.356 4.03-.184.305-.254.438 0 .778.188.254.797.781 1.203 1.254.746.847 1.32 1.558 1.473 2.05.172.489-.082.743-.574.743z"/></g><defs><clipPath id="a"><path fill="#fff" d="M0 .638h24v24H0z"/></clipPath></defs></svg>
